X:1
T:Mississauga, 87.87.887
T:Mississauga, 87.87.887
T:Philip Phillips, 1874
T:Public Domain Courtesy of the Cyber Hymnal™
C:Philip Phillips, 1874
Z:Public Domain
Z:Courtesy of the Cyber Hymnal™
%%score ( 1 2 ) ( 3 4 )
L:1/8
Q:1/4=105
M:4/4
K:Ab
V:1 treble 
V:2 treble 
V:3 bass 
V:4 bass 
V:1
 [Ec][Ec][Ec][Ec] [Ec]2 [DB]2 | [CA]4 E4 | [CA][CA][=DA][DA] [EG]2 A2 | (B4 d2) z2 | %4
 [Ec]2 [Ec]2 [Ec][Ec][DB][Ec] | [Fd]4 [DF]4 | EE[EA][EB] [Ec]2 [DB]2 | [CA]6 z2 | %8
 [Ec]2 [Ec]2 [DB]2 [DB]2 | [CA]2 [CA]2 [=EG]2 [EG]2 | [DF]2 [DB]2 [CE]2 [CA]2 | %11
"^rall." [=Ec]2 [EG]2 [FA]2 [FA]2 |"^a tempo" [EA]E[EG][EA] [Ec]2 [DB]2 | [CA]6 z2 |] %14
V:2
 x8 | x4 E4 | x6 (EC) | E6 x2 | x8 | x8 | EE x6 | x8 | x8 | x8 | x8 | x8 | x E x6 | x8 |] %14
V:3
 [A,,A,][A,,A,][A,,A,][A,,A,] [A,,A,]2 [E,G,]2 | [F,A,]4 [C,A,]4 | %2
 [F,A,][F,A,][F,B,][F,B,] B,2 A,2 | (G,4 A,2) z2 | [A,,A,]2 [A,,A,]2 [A,,A,][A,,A,][A,,A,][A,,A,] | %5
 [D,A,]4 [D,A,]4 | [E,C][E,C][E,C][E,G,] A,2 [E,G,]2 | [A,,A,]6 z2 | A,2 A,2 [E,G,]2 [E,G,]2 | %9
 [F,A,]2 [F,A,]2 [C,C]2 [C,B,]2 | [D,A,]2 [D,F,]2 [A,,A,]2 [A,,A,]2 | %11
 [C,G,]2 [C,C]2 [F,C]2 [D,D]2 | [E,C][E,C][E,C][E,G,] A,2 [E,G,]2 | [A,,A,]6 z2 |] %14
V:4
 x8 | x8 | x4 (E,D,) (C,A,,) | E,6 x2 | x8 | x8 | x4 A,2 x2 | x8 | A,2 A,2 x4 | x8 | x8 | x8 | %12
 x4 A,2 x2 | x8 |] %14

